packages/assets/static/images/icons/camera-plus.svg

<svg width="24" height="24" viewBox="0 0 24 24" xmlns="http://www.w3.org/2000/svg">
<path d="M15.7499 13.1255C15.7499 13.3244 15.6709 13.5152 15.5302 13.6558C15.3896 13.7965 15.1988 13.8755 14.9999 13.8755H12.7499V16.1255C12.7499 16.3244 12.6709 16.5152 12.5302 16.6558C12.3896 16.7965 12.1988 16.8755 11.9999 16.8755C11.801 16.8755 11.6102 16.7965 11.4696 16.6558C11.3289 16.5152 11.2499 16.3244 11.2499 16.1255V13.8755H8.99991C8.801 13.8755 8.61023 13.7965 8.46958 13.6558C8.32893 13.5152 8.24991 13.3244 8.24991 13.1255C8.24991 12.9266 8.32893 12.7358 8.46958 12.5952C8.61023 12.4545 8.801 12.3755 8.99991 12.3755H11.2499V10.1255C11.2499 9.92658 11.3289 9.73581 11.4696 9.59516C11.6102 9.45451 11.801 9.37549 11.9999 9.37549C12.1988 9.37549 12.3896 9.45451 12.5302 9.59516C12.6709 9.73581 12.7499 9.92658 12.7499 10.1255V12.3755H14.9999C15.1988 12.3755 15.3896 12.4545 15.5302 12.5952C15.6709 12.7358 15.7499 12.9266 15.7499 13.1255ZM21.7499 7.87549V18.3755C21.7499 18.9722 21.5129 19.5445 21.0909 19.9665C20.6689 20.3884 20.0966 20.6255 19.4999 20.6255H4.49991C3.90317 20.6255 3.33088 20.3884 2.90892 19.9665C2.48696 19.5445 2.24991 18.9722 2.24991 18.3755V7.87549C2.24991 7.27875 2.48696 6.70645 2.90892 6.2845C3.33088 5.86254 3.90317 5.62549 4.49991 5.62549H7.09866L8.15616 4.04299C8.2929 3.83804 8.47802 3.66992 8.69516 3.5535C8.9123 3.43708 9.15478 3.37594 9.40116 3.37549H14.5987C14.845 3.37594 15.0875 3.43708 15.3047 3.5535C15.5218 3.66992 15.7069 3.83804 15.8437 4.04299L16.9012 5.62549H19.4999C20.0966 5.62549 20.6689 5.86254 21.0909 6.2845C21.5129 6.70645 21.7499 7.27875 21.7499 7.87549ZM20.2499 7.87549C20.2499 7.67658 20.1709 7.48581 20.0302 7.34516C19.8896 7.20451 19.6988 7.12549 19.4999 7.12549H16.4999C16.3764 7.12557 16.2548 7.09515 16.1459 7.03692C16.0369 6.9787 15.9441 6.89448 15.8755 6.79174L14.5987 4.87549H9.40116L8.12428 6.79174C8.05574 6.89448 7.96288 6.9787 7.85396 7.03692C7.74503 7.09515 7.62342 7.12557 7.49991 7.12549H4.49991C4.301 7.12549 4.11023 7.20451 3.96958 7.34516C3.82893 7.48581 3.74991 7.67658 3.74991 7.87549V18.3755C3.74991 18.5744 3.82893 18.7652 3.96958 18.9058C4.11023 19.0465 4.301 19.1255 4.49991 19.1255H19.4999C19.6988 19.1255 19.8896 19.0465 20.0302 18.9058C20.1709 18.7652 20.2499 18.5744 20.2499 18.3755V7.87549Z"/>
</svg>

<svg viewBox="0 0 24 24" xmlns="http://www.w3.org/2000/svg" aria-hidden="true" fill="currentColor"><path d="M15.75 13.126a.75.75 0 0 1-.75.75h-2.25v2.25a.75.75 0 1 1-1.5 0v-2.25H9a.75.75 0 1 1 0-1.5h2.25v-2.25a.75.75 0 1 1 1.5 0v2.25H15a.75.75 0 0 1 .75.75m6-5.25v10.5a2.25 2.25 0 0 1-2.25 2.25h-15a2.25 2.25 0 0 1-2.25-2.25v-10.5a2.25 2.25 0 0 1 2.25-2.25h2.599l1.057-1.583a1.5 1.5 0 0 1 1.245-.668H14.6a1.5 1.5 0 0 1 1.245.668L16.9 5.625h2.6a2.25 2.25 0 0 1 2.25 2.25m-1.5 0a.75.75 0 0 0-.75-.75h-3a.75.75 0 0 1-.624-.334l-1.277-1.917H9.4L8.124 6.792a.75.75 0 0 1-.624.333h-3a.75.75 0 0 0-.75.75v10.5a.75.75 0 0 0 .75.75h15a.75.75 0 0 0 .75-.75z"/></svg>
